X:1
T:O schafft mir Wein
T:Conradin Kreutzer
T:Ludwig Uhland
T:O schafft mir Wein
T:CPDL - Creative Commons Attribution Non Commercial 3.0
T:CPDL - Creative Commons Attribution Non Commercial 3.0
C:Conradin Kreutzer
Z:Ludwig Uhland
Z:CPDL - Creative Commons Attribution Non Commercial 3.0
%%score [ ( 1 2 ) ( 3 4 ) ]
L:1/8
Q:1/4=90
M:6/8
K:Bb
V:1 treble-8 nm="Tenor"
V:2 treble-8 
V:3 bass nm="Bass"
V:4 bass 
V:1
"^Vivace"!f! d | d2 d d2 d | d3- def | g3 z2 e | cfc dfd | cfc d2 d | c2 c d2 =e | f3- f z F | %8
w: 1.~Was|ist das für ein|dur- * * stig|Jahr! die|Keh- * le lechzt * mir|im- * mer- dar, die|Le- ber dorrt mir|ein. _ Ich|
w: 2.~Was|weht doch jetzt für|trock- ne * *|Luft! Kein|Re- * gen hilft, * kein|Tau, * kein Duft, kein|Trunk will mir ge-|deihn. _ Ich|
w: 3.~Und|wenn es euch wie|mir er- * *|geht, so|be- * tet, dass * der|Wein _ ge- rät, ihr|Trin- ker ins- ge-|mein! _ O|
 F2 A c2 A | F2 A c2 A | A2 c e2 c | A2 c e2 c | (e2 e) (d2 B) | f3- f2 d | c3- c z F | BFB cFc | %16
w: bin ein Fisch auf|trock- nem Sand, ich|bin ein Fisch auf|trock- nem Sand, ich|bin ein dür- res|A- * cker-|land; _ 1\-3.~o|schafft * mir, schafft * mir|
w: trink im al- ler-|tiefs- ten Zug, und|den- noch wird's mir|nie ge- nug, fällt|wie _ auf _|hei- * ßen|Stein. _ _|_ _ _ _ _ _|
w: heil'- ger Ur- ban,|schaff uns Trost, gib|heu- er uns viel|ed- len Most, dass|wir _ dich _|be- * ne-|dein. _ _|_ _ _ _ _ _|
 dBd ece | f6- | f6- | (f2 b ge)c |!ff! d2 d f2 f | !fermata!B6 |] %22
w: Wein, * o schafft * mir|Wein,|_|* * * * o|schafft mir, schafft mir|Wein!|
w: ||||||
w: ||||||
V:2
 B | B2 B B2 B | B3 B3 | B3 x2 c | c2 c B2 B | c2 c B2 B | A2 c B2 B | A3- A x z | z6 | z2 z z2 F | %10
w: ||dur- stig||||||||
 F2 A c2 A | F2 A c2 A | (c2 c) (B2 d) | d3- d2 B | A3- A2 z | z2 z z2 F | BFB cFc | dBd ece | %18
w: |||||1\-3.~o|schafft * mir, schafft * mir|Wein, * o schafft * mir|
 f6- | (f2 d) B3 | B2 d c2 A | F6 |] %22
w: Wein,|_ _ o|||
V:3
!f! B, | B,2 B, B,2 B, | B,3 _A,3 | G,3 z2 G, | A,2 A, B,2 F, | A,2 A, B,2 F, | F,2 A, G,2 G, | %7
w: |||||||
 F,3- F, z z | z6 | z2 z z2 F, | F,2 F, F,2 F, | F,2 F, F,2 F, | (F,2 F,) (F,2 F,) | F,3- F,2 F, | %14
w: |||||||
 F,3- F,2 z | z6 | z2 z z2 F, | B,F,B, CF,C | DB,D ECE | (D2 B,-) B,G,G, |!ff! F,2 B, A,2 E, | %21
w: ||1\-3.~o|schafft * mir, schafft * mir|Wein, * o schafft * mir|Wein _ _ _ o|schafft mir, * *|
 !fermata!D,6 |] %22
w: |
V:4
 B, | B,2 A, G,2 ^F, | G,3 =F,3 | E,3 x2 C, | F,2 F, B,,2 B,, | F,2 F, B,,2 B,, | C,2 C, C,2 C, | %7
w: |||||||
 F,3- F, x x | x6 | z6 | z6 | z2 z z2 F, | (A,,2 A,,) (B,,2 B,,) | F,,3- F,,2 F,, | F,,3- F,,2 x | %15
w: ||||||||
 x6 | z6 | z2 z z2 F, | B,F,B, CF,C | B,3 E,3 | F,2 F, F,2 F,, | B,,6 |] %22
w: ||1\-3.~o|schafft * mir, schafft * mir|Wein, o|||

